X:1
T:Folia
T:Folia
T:Alessandro Scarlatti
T:Public domain
T:Public domain
T:Public domain
T:Public domain
C:Allessandro Scarlatti
Z:Public domain
%%score 1 ( 2 3 )
L:1/8
M:3/4
K:F
V:1 treble nm="Piano"
V:2 bass nm="Klavier"
V:3 bass 
V:1
 z6 |"^Allegretto"[Q:1/4=160]!mp! !1!d!3!f !5!af df | !1!^c!2!e !5!ae ce | df af df | %4
 !1!e!3!g !5!c'g eg | !1!f!3!a !5!c'a fa | eg c'g eg | df af df | ^ce ae ce | df af df | %10
 ^ce ae ce | df af df | eg c'g eg | fa c'a fa | T!3!!4!!3!g3 a fe | fg T!2!!3!!2!e3 d | d6 || %17
 dA Fd Fd | ^cA Ec Ec | dA Fd Fd | ec Ge Ge | fc Af Af | ec Ge Ge | dA Fd Fd | ^cA Ec Ec | %25
 dA Fd Fd | ^cA Ec Ec | dA Fd Fd | ec Ge Ge | fc Af Af | ec Ge Ge | dA Fd E^c | d4 AF || %33
!p! !1!!3!!5![Adf]2 [Adf]2 [Adf]2 | !1!!2!!4![A^ce]2 [Ace]2 [Ace]2 | [Adf]2 [Adf]2 [Adf]2 | %36
 !1!!3!!5![ceg]2 [ceg]2 [ceg]2 | !1!!3!!5![cfa]2 [cfa]2 [cfa]2 | [ceg]2 [ceg]2 [ceg]2 | %39
 [Adf]2 [Adf]2 [Adf]2 | [A^ce]2 [Ace]2 [Ace]2 | [Adf]2 [Adf]2 [Adf]2 | [A^ce]2 [Ace]2 [Ace]2 | %43
 [Adf]2 [Adf]2 [Adf]2 | [ceg]2 [ceg]2 [ceg]2 | [cfa]2 [cfa]2 [cfa]2 | [ceg]3!mf! f d^c | %47
 de T^c3 d | [FAd]6 ||!mf! !5!a/g/f/e/ d!5!f ed | !5!e/d/^c/=B/ !1!A!5!a ga | f/g/f/e/ d!4!f ed | %52
 g/f/e/d/ cc' bc' | a/b/a/g/ !1!fa gf | !5!g/f/e/d/ cg fe | fe Te3 d | d6 | !5!a/g/f/e/ d!5!f ed | %58
 !5!e/d/^c/=B/ !1!A!5!a ga | f/g/f/e/ d!4!f ed | e/d/^c/=B/ Aa ga | f/g/f/e/ !1!df ed | %62
 g/f/e/d/ cc' bc' | a/b/a/g/ !1!fa gf | !5!g/f/e/d/ cg fe | fe Te3 d | d6 |] %67
V:2
 z6 |"Dm"!p! z2 !2!A,2 !1!D2 |"A" z2 E,2 A,2 |"Dm" z2 A,2 D2 |"C" z2 G,2 C2 |"F" z2 !3!A,2 !1!C2 | %6
"C" z2 G,2 C2 |"Dm" z2 A,2 D2 |"A" z2 E,2 A,2 |"Dm" z2 A,2 D2 |"A" z2 E,2 A,2 |"Dm" z2 A,2 D2 | %12
"C" z2 G,2 C2 |"F" z2 A,2 C2 |"C" C,4"Dm" D,2 |"A7" G,,2 A,,4 |"Dm" D,6 ||"Dm" D4 D,2 | %18
"A" A,4 A,,2 |"Dm" D4 D,2 |"C" C4 C,2 |"F" F,4 F,,2 |"C" C,4 C2 |"Dm" D4 D,2 |"A" A,4 A,,2 | %25
"Dm" D,4 D,,2 |"A" A,,4 A,2 |"Dm" D,4 D2 |"C" C4 C,2 |"F" F,4 F,,2 |"C" C,6 |"Dm" D,2 A,2"A" A,,2 | %32
"Dm" D,4 z2 ||"Dm"!mf! !1!D2 !5!D,E, F,D, |"A" !1!A,2 !5!A,,=B,, ^C,A,, |"Dm" D,2 D,E, F,D, | %36
"C" E,2 C,D, E,C, |"F" F,2 !5!F,G, A,F, |"C" !1!C2 C,D, E,C, |"Dm" D,2 D,E, F,D, | %40
"A" A,2 A,,=B,, ^C,A,, |"Dm" D,2 D,E, F,D, |"A" A,2 A,=B, ^CA, |"Dm" D2 D,E, F,D, | %44
"C" E,2 C,D, E,C, |"F" F,E, F,G, A,B, |"C" C3"Dm"!mp! A, B,2 |"A" G,2 A,2 A,,2 |"Dm" D,6 || %49
"Dm"!mp! z2 F,2 A,2 |"A" z2 E,2 A,2 |"Dm" z2 A,2 D2 |"C" z2 G,2 C2 |"F" z2 A,2 C2 |"C" z2 G,2 C2 | %55
"Dm" D,2 A,2 A,,2 |"Dm" D,6 |"Dm" z2 A,2 D2 |"A" z2 E,2 A,2 |"Dm" z2 A,2 D2 |"A" z2 E,2 A,2 | %61
"Dm" z2 A,2 D2 |"C" z2 G,2 C2 |"F" z2 A,2 C2 |"C" z2 G,2 C2 |"Dm" D,2 A,2 A,,2 |"Dm" D,6 |] %67
V:3
 x6 | !5!D,6 | !5!A,,6 | D,6 | =C,6 | !5!F,6 | C,6 | D,6 | A,,6 | D,6 | A,,6 | D,6 | =C,6 | F,6 | %14
 x6 | x6 | x6 || x6 | x6 | x6 | x6 | x6 | x6 | x6 | x6 | x6 | x6 | x6 | x6 | x6 | x6 | x6 | x6 || %33
 x6 | x6 | x6 | x6 | x6 | x6 | x6 | x6 | x6 | x6 | x6 | x6 | x6 | x6 | x6 | x6 || D,6 | A,,6 | %51
 D,6 | C,6 | F,6 | C,6 | x6 | x6 | D,6 | A,,6 | D,6 | A,,6 | D,6 | C,6 | F,6 | C,6 | x6 | x6 |] %67

